!!!!SEGMENT: pl-cz--ii-16--004_szlagorski-walenty--talnce-walz-4.krn
!!!cenid: 18xx:1068
!!!COM: Szlagórski, Walenty
!!!COM-rismid: pe30111815
!!!CDT: 1801-1863/07/16
!!!CNT: Polish
!!!GTL: Tańce
!!!OTL: Walz 4
!!!PDT:
!!!AGN: Secular; Waltz
!!!SMS-siglum: PL-CZ
!!!SMS-shelfmark: II-16
!!!SMS-shelfwork: 004 G
!!!SMS-variant:
!!!SMS-altvar:
!!!NIFC-rismid: 300001297
!!!URL-scan: http://repozytorium.nifc.pl/skany/pl-cz-nut--ii-16
!!!ONB-nifc: UWAGA: zbiór zawiera Walce nr 1-5, Galop, Mazury nr 1-4
!!!AIN: 2 clars 2 cor 2 empty 1 flt 2 violn
!!!key:
**kern	**kern	**kern	**dynam	**kern	**kern	**dynam	**kern	**dynam	**kern	**dynam	**kern	**dynam	**kern
*part9	*part8	*part7	*part7	*part6	*part5	*part5	*part4	*part4	*part3	*part3	*part2	*part2	*part1
*staff9	*staff8	*staff7	*	*staff6	*staff5	*	*staff4	*	*staff3	*	*staff2	*	*staff1
*Iempty	*Ivioln	*Ivioln	*	*Iempty	*Icor	*	*Icor	*	*Iclars	*	*Iclars	*	*Iflt
*I"Baſso	*I"Violino 2.do	*I"Violino 1mo	*	*I"Clarino. in D.	*I"Corno 2do in D.	*	*I"Corno 1mo in D.	*	*I"Clarinetto 2do in A.	*	*I"Clarinetto 1mo in A.	*	*I"Flauto
*I'cb	*I'vl 2	*I'vl 1	*	*I'clar in D	*I'cor 2 in D	*	*I'cor 1 in D	*	*I'cl 2 in A	*	*I'cl 1 in A	*	*I'fl
*>[A,B,A]	*>[A,B,A]	*>[A,B,A]	*	*>[A,B,A]	*>[A,B,A]	*>[A,B,A]	*>[A,B,A]	*>[A,B,A]	*>[A,B,A]	*>[A,B,A]	*>[A,B,A]	*>[A,B,A]	*>[A,B,A]
*>A	*>A	*>A	*	*>A	*>A	*>A	*>A	*>A	*>A	*>A	*>A	*>A	*>A
*clefF4	*clefG2	*clefG2	*	*clefG2	*clefG2	*	*clefG2	*	*clefG2	*	*clefG2	*	*clefG2
*	*	*	*	*ITrd-1c-2	*ITrd6c10	*	*ITrd6c10	*	*ITrd2c3	*	*ITrd2c3	*	*
*k[f#c#]	*k[f#c#]	*k[f#c#]	*	*k[f#c#]	*k[f#c#]	*	*k[f#c#]	*	*k[f#c#]	*	*k[f#c#]	*	*k[f#c#]
*D:	*D:	*D:	*	*D:	*D:	*	*D:	*	*D:	*	*D:	*	*D:
*M3/4	*M3/4	*M3/4	*	*M3/4	*M3/4	*	*M3/4	*	*M3/4	*	*M3/4	*	*M3/4
=1	=1	=1	=1	=1	=1	=1	=1	=1	=1	=1	=1	=1	=1
*	*	*^	*	*	*	*	*	*	*	*	*	*	*
!	!	!	!	!	!	!	!	!	!	!LO:TX:a:t=8	!	!	!	!
!	!	!	!	!	!	!LO:TX:a:t=4	!	!LO:TX:a:t=4	!	!	!	!	!	!
!	!	!	!	!	!LO:TX:a:i:t=4 Tacet	!	!	!	!	!LO:TX:t=P:problem=dodatkowy znak een	!	!LO:TX:t=P:problem=dodatkowy znak een	!	!
4D\	4r	4aa/	4r	.	2.ryy	0.r	.	0.r	.	0.r	.	4a'\	.	4aa\
4r	4d/	4bb/	4f#\	.	.	.	.	.	.	.	.	4b'\	.	4bb\
4r	4d/	4ccc#/	4f#\	.	.	.	.	.	.	.	.	4cc#X'\	.	4ccc#\
=2	=2	=2	=2	=2	=2	=2	=2	=2	=2	=2	=2	=2	=2	=2
*	*rep	*	*	*	*	*	*	*	*	*	*	*2\right	*	*2\right
4D\	4r	2ddd/	4r	.	2.ryy	.	.	.	.	.	.	2dd\	.	2ddd\
4r	4d/	.	4f#\	.	.	.	.	.	.	.	.	.	.	.
4r	4d/	4ff#/	4f#\	.	.	.	.	.	.	.	.	4f#\	.	4ff#\
*	*Xrep	*	*	*	*	*	*	*	*	*	*	*	*	*
=3	=3	=3	=3	=3	=3	=3	=3	=3	=3	=3	=3	=3	=3	=3
4D\	4r	4ff#/	4r	.	2.ryy	.	.	.	.	.	.	4f#\	.	4ff#\
4r	4d/	4gg/	4f#\	.	.	.	.	.	.	.	.	4g\	.	4gg\
4r	4d/	4gg#X/	4f#\	.	.	.	.	.	.	.	.	4g#\	.	4gg#X\
=4	=4	=4	=4	=4	=4	=4	=4	=4	=4	=4	=4	=4	=4	=4
4D\	4d 4B/	2aa/	4r	.	2.ryy	.	.	.	.	.	.	2a\	.	2aa\
4r	4d 4B/	.	4f#\	.	.	.	.	.	.	.	.	.	.	.
4r	4d 4B/	4dd/	4f#\	.	.	.	.	.	.	.	.	4d/	.	4dd\
=5	=5	=5	=5	=5	=5	=5	=5	=5	=5	=5	=5	=5	=5	=5
*	*	*	*	*	*	*2\right	*	*2\right	*	*	*	*	*	*
!	!	!	!	!	!	!	!LO:DY:rj	!	!	!	!	!	!	!
4E\	2e 2c#/	4ee/	4g#X\	.	2.ryy	2d\	p	2e\	p	0.r	.	4e\	.	4ee\
4r	.	4ff#/	4g#\	.	.	.	.	.	.	.	.	4f#\	.	4ff#\
4r	4e 4c#/	4ee/	4g#\	.	.	(<4d\	.	[4e\	.	.	.	4e\	.	4ee\
=6	=6	=6	=6	=6	=6	=6	=6	=6	=6	=6	=6	=6	=6	=6
*	*	*	*2\right	*	*	*	*	*	*	*	*	*	*	*
4AA/	4r	2aa/	2gn\	.	2.ryy	2A/)	.	2e\]	.	.	.	2a 2A\	.	2aa\
4r	4d/	.	.	.	.	.	.	.	.	.	.	.	.	.
4r	4d/	4aa/	4g\	.	.	4A/	.	4e\	.	.	.	4aa 4a\	.	4aa\
=7	=7	=7	=7	=7	=7	=7	=7	=7	=7	=7	=7	=7	=7	=7
*	*rep	*	*	*	*	*	*	*	*	*	*	*	*	*
!	!	!	!	!	!	!	!	!	!	!	!	!LO:N:vis=4	!	!
4D\	4r	4.ggn/	4r	.	2.ryy	2F#/	.	2d\	.	.	.	4.gg 4.g\	.	4.ggn\
4r	4d/	.	4f#\	.	.	.	.	.	.	.	.	.	.	.
.	.	8ff#/L	.	.	.	.	.	.	.	.	.	(8ff#L 8f#\	.	8ff#\L
4r	4d/	8ee/	4f#\	.	.	4F#/	.	4d\	.	.	.	8ee 8e\	.	8ee\
.	.	8ff#/J	.	.	.	.	.	.	.	.	.	8ff#J 8f#\)	.	8ff#\J
*	*Xrep	*	*	*	*	*	*	*	*	*	*	*	*	*
=8	=8	=8	=8	=8	=8	=8	=8	=8	=8	=8	=8	=8	=8	=8
*	*rep	*	*	*	*	*	*	*	*	*	*	*	*	*
4D\	4r	2dd/	4r	.	2.ryy	4F#/	.	4d\	.	.	.	2dd 2c#\	.	2dd\
4r	4d/	.	4f#\	.	.	4r	.	4r	.	.	.	.	.	.
4r	4d/	4aa/	4f#\	.	.	4r	.	4r	.	.	.	4a\	.	4aa\
*	*Xrep	*	*	*	*	*	*	*	*	*	*	*	*	*
!	!	!LO:LB:g=original	!LO:LB:g=original	!	!	!	!	!	!	!	!	!	!	!
=9	=9	=9	=9	=9	=9	=9	=9	=9	=9	=9	=9	=9	=9	=9
*	*rep	*	*	*	*	*	*	*	*	*	*	*	*	*
!	!	!	!	!	!	!LO:TX:a:t=4	!	!	!	!	!	!	!	!
4D\	4r	4aa/	4r	.	2.ryy	0.r	.	0.r	.	2.f#/	.	4a\	.	4aa\
4r	4d/	4bb/	4f#\	.	.	.	.	.	.	.	.	4b\	.	4bb\
4r	4d/	4ccc#/	4f#\	.	.	.	.	.	.	.	.	4cc#\	.	4ccc#\
*	*Xrep	*	*	*	*	*	*	*	*	*	*	*	*	*
!	!	!	!	!	!	!	!	!	!	!	!	!LO:LB:g=original	!	!
=10	=10	=10	=10	=10	=10	=10	=10	=10	=10	=10	=10	=10	=10	=10
4D\	4r	2ddd/	4r	.	2.ryy	.	.	.	.	2f#/	.	2dd\	.	2ddd\
4r	4e 4B/	.	4f#\	.	.	.	.	.	.	.	.	.	.	.
4r	4e 4B/	4ff#/	4f#\	.	.	.	.	.	.	4r	.	4f#\	.	4ff#\
=11	=11	=11	=11	=11	=11	=11	=11	=11	=11	=11	=11	=11	=11	=11
*	*rep	*	*	*	*	*	*	*	*	*	*	*	*	*
4G\	4r	4ee/	4r	.	2.ryy	.	.	.	.	2.e/	.	4e/	.	4ee\
4r	4e 4B/	4gg/	4g\	.	.	.	.	.	.	.	.	4g/	.	4gg\
4r	4e 4B/	4bb/	4g\	.	.	.	.	.	.	.	.	4b\	.	4bb\
*	*Xrep	*	*	*	*	*	*	*	*	*	*	*	*	*
!	!	!	!	!	!	!	!	!	!	!	!	!	!	!LO:LB:g=original
=12	=12	=12	=12	=12	=12	=12	=12	=12	=12	=12	=12	=12	=12	=12
4G\	4e 4A/	2eee/	4r	.	2.ryy	.	.	.	.	2.g/	.	2ee\	.	2eee\
4r	4e 4A/	.	4g\	.	.	.	.	.	.	.	.	.	.	.
4r	4e 4A/	4ddd/	4g\	.	.	.	.	.	.	.	.	4dd\	.	4ddd\
!LO:LB:g=original	!LO:LB:g=original	!	!	!	!	!	!	!	!	!	!	!	!	!
=13	=13	=13	=13	=13	=13	=13	=13	=13	=13	=13	=13	=13	=13	=13
!	!	!	!	!LO:DY:rj	!	!	!	!	!	!	!	!	!	!
4A\	2.ryy	4ccc#/	4g\	ff	2.ryy	2.A/	.	2.e\	.	4g\	.	4cc#\	.	4ccc#\
4r	.	8aa/L	8g\L	.	.	.	.	.	.	4r	.	8a\L	.	8aa\L
.	.	8aa/J	8g\J	.	.	.	.	.	.	.	.	8a\J	.	8aa\J
4r	.	4aa/	4ryy	.	.	.	.	.	.	4r	.	4a\	.	4aa\
=14	=14	=14	=14	=14	=14	=14	=14	=14	=14	=14	=14	=14	=14	=14
4D\	4d 4A/	4ddd/	4f#\	.	2.ryy	2.d\	.	2.f#\	.	4f#/	.	4dd\	.	4ddd\
4r	4d 4A/	8aa/L	4f#\	.	.	.	.	.	.	4r	.	8a\L	.	8aa\L
.	.	8aa/J	.	.	.	.	.	.	.	.	.	8a\J	.	8aa\J
4r	4d 4A/	4aa/	4f#\	.	.	.	.	.	.	4r	.	4a\	.	4aa\
=15	=15	=15	=15	=15	=15	=15	=15	=15	=15	=15	=15	=15	=15	=15
4AA/	4e 4A/	4bb/	4g\	.	2.ryy	4A\	.	4e\	.	4g/	.	4b\	.	4bb\
4A\	4e 4A/	8aa/L	4g\	.	.	4A\	.	4e\	.	4r	.	8a\L	.	8aa\L
.	.	8aa/J	.	.	.	.	.	.	.	.	.	8a\J	.	8aa\J
4A\	4e 4A/	4aa/	4g\	.	.	4A\	.	4e\	.	4r	.	4a\	.	4aa\
!	!	!	!	!	!	!	!	!LO:LB:g=original	!	!	!	!	!	!
=16	=16	=16	=16	=16	=16	=16	=16	=16	=16	=16	=16	=16	=16	=16
!	!	!	!	!	!	!LO:TX:a:t=Fine	!	!LO:TX:a:t=Fin	!	!	!	!	!	!
!	!	!	!	!	!	!	!	!LO:TX:t=P:problem=fermata na kresce taktowej	!	!	!	!	!	!
4D\	2d 2A/	2ddd/	2f#\	.	2.ryy	2F#/;	.	2d\;	.	2f#/	.	2dd\	.	2ddd\
4d\	.	.	.	.	.	.	.	.	.	.	.	.	.	.
!LO:TX:t=P:problem=fermata na kresce taktowej	!	!LO:TX:t=P:problem=fermata na kresce taktowej	!	!	!	!	!	!	!	!LO:TX:t=P:problem=fermata na kresce taktowej	!	!	!	!
!LO:TX:a:t=Fine	!LO:TX:a:t=Fine	!LO:TX:a:t=Fine	!	!	!	!	!	!	!	!LO:TX:a:t=Fine	!	!	!	!LO:TX:a:t=Fine
4r;	4r	4r;	4ryy	.	.	4ryy	.	4ryy	.	4r;	.	4r	.	4r
!	!	!LO:LB:g=original	!LO:LB:g=original	!	!	!LO:LB:g=original	!	!	!	!	!	!	!	!
=17||	=17||	=17||	=17||	=17||	=17||	=17||	=17||	=17||	=17||	=17||	=17||	=17||	=17||	=17||
*>B	*>B	*>B	*>B	*	*>B	*>B	*>B	*>B	*>B	*>B	*>B	*>B	*>B	*>B
!	!	!	!	!	!	!	!	!	!	!LO:TX:a:t=12	!	!	!LO:DY:rj	!
4AA/	4r	2.aa/	4r	.	2.ryy	0.r	.	0.r	.	0.r	.	2.a\	p	2.aa\
4r	4e 4A/	.	4g\	.	.	.	.	.	.	.	.	.	.	.
4r	4e 4A/	.	4g\	.	.	.	.	.	.	.	.	.	.	.
=18	=18	=18	=18	=18	=18	=18	=18	=18	=18	=18	=18	=18	=18	=18
*	*rep	*	*	*	*	*	*	*	*	*	*	*	*	*
4A\	4r	4gg/	4r	.	2.ryy	.	.	.	.	.	.	4g/	.	(4gg\
4r	4e 4A/	4ee/	4g\	.	.	.	.	.	.	.	.	4d/	.	4ee\
4r	4e 4A/	4ff#/	4g\	.	.	.	.	.	.	.	.	4f#/	.	4ff#\)
*	*Xrep	*	*	*	*	*	*	*	*	*	*	*	*	*
=19	=19	=19	=19	=19	=19	=19	=19	=19	=19	=19	=19	=19	=19	=19
4D\	4r	2.dd/	4r	.	2.ryy	.	.	.	.	.	.	(2.d/	.	2.dd\
4r	4d 4A/	.	4f#\	.	.	.	.	.	.	.	.	.	.	.
4r	4d 4A/	.	4f#\	.	.	.	.	.	.	.	.	.	.	.
!	!	!	!	!	!	!	!	!	!	!	!	!LO:LB:g=original	!	!
=20	=20	=20	=20	=20	=20	=20	=20	=20	=20	=20	=20	=20	=20	=20
*	*rep	*	*	*	*	*	*	*	*	*	*	*	*	*
!	!	!	!	!	!	!	!	!	!	!	!	!LO:TX:t=P:problem=brak zakończenia łuku	!	!
4d\	4r	2.ddd/	4r	.	2.ryy	.	.	.	.	.	.	2.dd\)	.	2.ddd\
4r	4d 4A/	.	4f#\	.	.	.	.	.	.	.	.	.	.	.
4r	4d 4A/	.	4f#\	.	.	.	.	.	.	.	.	.	.	.
*	*Xrep	*	*	*	*	*	*	*	*	*	*	*	*	*
=21	=21	=21	=21	=21	=21	=21	=21	=21	=21	=21	=21	=21	=21	=21
4A\	4r	(<4ccc#/	4r	.	2.ryy	[>2.A/	.	2.e\	.	0.r	.	(4cc#\	.	(4ccc#\
4r	4e 4A/	4ddd/)	4g\	.	.	.	.	.	.	.	.	4dd\)	.	4ddd\)
4r	4e 4A/	4eee'/	4g\	.	.	.	.	.	.	.	.	4ee'\	.	4eee'\
=22	=22	=22	=22	=22	=22	=22	=22	=22	=22	=22	=22	=22	=22	=22
*	*rep	*	*	*	*	*	*	*	*	*	*	*	*	*
4A\	4r	(<4gg/	4r	.	2.ryy	2.A/]	.	2.e\	.	.	.	4g/	.	(4gg\
4r	4e 4A/	4aa/)	4g\	.	.	.	.	.	.	.	.	4a/	.	4aa\)
4r	4e 4A/	4bb/	4g\	.	.	.	.	.	.	.	.	4b/	.	4bb'\
*	*Xrep	*	*	*	*	*	*	*	*	*	*	*	*	*
=23	=23	=23	=23	=23	=23	=23	=23	=23	=23	=23	=23	=23	=23	=23
4D\	4r	2bb/	4r	.	2.ryy	2.F#/	.	2.e\	.	.	.	2b^\	.	2bb\
4r	4d 4A/	.	4f#\	.	.	.	.	.	.	.	.	.	.	.
4r	4d 4A/	4aa/	4f#\	.	.	.	.	.	.	.	.	4a\	.	4aa\
=24	=24	=24	=24	=24	=24	=24	=24	=24	=24	=24	=24	=24	=24	=24
*	*rep	*	*	*	*	*	*	*	*	*	*	*	*	*
4d\	4r	2ff#/	4r	.	2.ryy	2F#/	.	2d\	.	.	.	2f#/	.	2ff#\
4r	4d 4A/	.	4f#\	.	.	.	.	.	.	.	.	.	.	.
4r	4d 4A/	4dd/	4f#\	.	.	4r	.	4r	.	.	.	4d/	.	4dd\
*	*Xrep	*	*	*	*	*	*	*	*	*	*	*	*	*
!LO:LB:g=original	!	!LO:LB:g=original	!LO:LB:g=original	!	!	!	!	!	!	!	!	!	!	!LO:LB:g=original
=25	=25	=25	=25	=25	=25	=25	=25	=25	=25	=25	=25	=25	=25	=25
!	!	!	!	!	!	!LO:TX:a:T=4	!	!	!	!	!	!	!	!
4A\	4r	(<4aa/	4r	.	2.ryy	0.r	.	0.r	.	0.r	.	(4a\	.	(4aa\
4r	4e 4A/	4bb/)	4g\	.	.	.	.	.	.	.	.	4b\)	.	4bb\)
4r	4e 4A/	4aa/	4g\	.	.	.	.	.	.	.	.	4a'\	.	4aa'\
!	!LO:LB:g=original	!	!	!	!	!	!	!	!	!	!	!	!	!
=26	=26	=26	=26	=26	=26	=26	=26	=26	=26	=26	=26	=26	=26	=26
4AA/	4r	4gg/	4r	.	2.ryy	.	.	.	.	.	.	(4g\	.	(4gg\
4r	4e 4A/	4ee/	4g\	.	.	.	.	.	.	.	.	4e\)	.	4ee\)
4r	4e 4A/	4ff#/	4g\	.	.	.	.	.	.	.	.	4f#'\	.	4ff#'\
=27	=27	=27	=27	=27	=27	=27	=27	=27	=27	=27	=27	=27	=27	=27
4D\	4r	(<4dd/	4r	.	2.ryy	.	.	.	.	.	.	(4d\	.	(4dd\
4r	4d 4A/	4ff#/)	4f#\	.	.	.	.	.	.	.	.	4f#\)	.	4ff#\)
4r	4d 4A/	4aa/	4f#\	.	.	.	.	.	.	.	.	4a'\	.	4aa'\
!	!	!	!	!	!	!	!	!	!	!	!	!LO:LB:g=original	!	!
=28	=28	=28	=28	=28	=28	=28	=28	=28	=28	=28	=28	=28	=28	=28
*	*rep	*	*	*	*	*	*	*	*	*	*	*	*	*
!	!	!	!	!	!	!	!	!	!	!	!	!LO:N:vis=2.	!	!
4d\	4r	2ddd/	4r	.	2.ryy	.	.	.	.	.	.	2dd\	.	2ddd\
4r	4d 4A/	.	4f#/	.	.	.	.	.	.	.	.	.	.	.
4r	4d 4A/	4ccc#/	4f#/	.	.	.	.	.	.	.	.	4cc#\	.	4ccc#\
*	*Xrep	*	*	*	*	*	*	*	*	*	*	*	*	*
!	!	!	!	!	!	!	!	!	!	!LO:LB:g=original	!	!	!	!
=29	=29	=29	=29	=29	=29	=29	=29	=29	=29	=29	=29	=29	=29	=29
*	*	*	*	*	*	*	*	*	*	*2\right	*	*	*	*
!	!	!	!	!	!	!	!LO:DY:rj	!	!LO:DY:rj	!	!LO:DY:rj	!	!	!
4E\	4r	(<4bb/	4r	.	2.ryy	2.d\	f	2.e\	f	2.g 2.d\	f	(4b\	.	(4bb\
4r	4d 4B/	4aa/)	4g#X\	.	.	.	.	.	.	.	.	4a\)	.	4aa\)
4r	4d 4B/	4bb/	4g#\	.	.	.	.	.	.	.	.	4b'\	.	4bb'\
=30	=30	=30	=30	=30	=30	=30	=30	=30	=30	=30	=30	=30	=30	=30
4A\	4r	4aa/	4r	.	2.ryy	2.A/	.	2.e\	.	2.e 2.c#\	.	(4a\	.	(4aa\
4r	4e 4c#/	4ccc#/	4a\	.	.	.	.	.	.	.	.	4cc#\)	.	4ccc#\)
4r	4e 4c#/	4eee/	4a\	.	.	.	.	.	.	.	.	4ee'\	.	4eee'\
=31	=31	=31	=31	=31	=31	=31	=31	=31	=31	=31	=31	=31	=31	=31
4E\	4d 4B/	4ee/	4g#X\	.	2.ryy	4F#/	.	4d\	.	2.d/	.	(4e\	.	4ee\
4E\	4d 4B/	4ff#/	4g#\	.	.	4A/	.	4e\	.	.	.	4f#\)	.	4ff#\
4E\	4d 4B/	4gg#X/	4g#\	.	.	4A/	.	4e\	.	.	.	4g#'\	.	4gg#X\
!	!	!LO:LB:g=original	!LO:LB:g=original	!	!	!	!	!	!	!	!	!	!	!
=32	=32	=32	=32	=32	=32	=32	=32	=32	=32	=32	=32	=32	=32	=32
4AA/	2e 2c#/	2aa/	2a\	.	2.ryy	2A/	.	2e\	.	2d/	.	2a\	.	2aa\
4A\	.	.	.	.	.	.	.	.	.	.	.	.	.	.
!LO:TX:b:t=Da Capo al Fine	!LO:TX:b:t=Da Capo al Fine	!LO:TX:b:i:t=Da Capo al Fine	!	!	!	!LO:TX:b:t=Da Capo \nal Fine	!	!LO:TX:b:i:t=Da Capo \nal Fine	!	!LO:TX:b:i:t=Da Capo al Fine	!	!LO:TX:b:i:t=Du Capo al Fine	!	!LO:TX:b:t=Da Capo al Fine
4r	4r	4r	4r	.	.	4r	.	4r	.	4r	.	4r	.	4r
*	*	*v	*v	*	*	*	*	*	*	*	*	*	*	*
==	==	==	==	==	==	==	==	==	==	==	==	==	==
*-	*-	*-	*-	*-	*-	*-	*-	*-	*-	*-	*-	*-	*-
!!!system-decoration: [(s1,s2,s3)][(s4,s5,s6)][(s7,s8,s9)]
!!!RDF**kern: > = above
!!!RDF**kern: < = below
!!!ENC: Marcin Jachim
!!!END: 2020-10-03
!!!ENC: Marta Lawrence
!!!END: 2021-11-02
